assets/symbols/mulberry/open_computer_folder.svg

<svg height="850.394" viewBox="0 0 850.394 850.394" width="850.394" xmlns="http://www.w3.org/2000/svg"><g fill="#f6cc4b"><path d="m276.07 202.39 23.8 72.4v1.04h-206.4v-73.44zm-182.6 73.44h584.52v59.54h-502.15l-77.41 326.49h569.64v.01h-574.61v-386.04z"/><path d="m760.37 335.37-77.41 326.49h-14.89l9.92-326.49z"/><path d="m677.99 335.37-9.92 326.49h-569.64l77.41-326.49z"/></g><g fill="none"><g stroke="#231f20" stroke-width="21"><path d="m668.07 661.87h-574.61v-386.04h584.53v59.54"/><path d="m677.99 335.37h82.38l-77.41 326.49h-584.53l77.41-326.49zm-584.52-53.59v-79.39h182.6l23.8 72.4"/></g><path d="m0 0h850.394v850.394h-850.394z"/></g></svg>

<svg xmlns="http://www.w3.org/2000/svg" width="850.394" height="850.394" viewBox="0 0 850.394 850.394" overflow="visible"><g fill="#f6cc4b"><path d="M276.07 202.39l23.8 72.4v1.04H93.47v-73.44zM93.47 275.83h584.52v59.54H175.84L98.43 661.86h569.64v.01H93.46V275.83z"/><path d="M760.37 335.37l-77.41 326.49h-14.89l9.92-326.49z"/><path d="M677.99 335.37l-9.92 326.49H98.43l77.41-326.49z"/></g><g fill="none" stroke="#231f20" stroke-width="21"><path d="M668.07 661.87H93.46V275.83h584.53v59.54"/><path d="M677.99 335.37h82.38l-77.41 326.49H98.43l77.41-326.49zM93.47 281.78v-79.39h182.6l23.8 72.4"/></g><path fill="none" d="M0 0h850.394v850.394H0z"/></svg>
